react/assets/icons/inbox-alt.svg

<svg width="48" height="48" viewBox="0 0 24 24" xmlns="http://www.w3.org/2000/svg" aria-labelledby="inboxAltIconTitle" stroke-linecap="square" fill="none"><path d="M3 13h6v3h6v-3h6"/><path fill-rule="evenodd" clip-rule="evenodd" d="M3 13l2-9h14l2 9v7H3v-7z"/><path d="M7 7h10M6.5 10h11"/></svg>

<svg width="48px" height="48px" viewBox="0 0 24 24" xmlns="http://www.w3.org/2000/svg" aria-labelledby="inboxAltIconTitle" stroke-linecap="square" stroke-linejoin="miter" fill="none"> <title id="inboxAltIconTitle">Inbox</title> <path d="M3 13H9V16H15V13H21"/> <path fill-rule="evenodd" clip-rule="evenodd" d="M3 13L5 4H19L21 13V20H3V13Z"/> <path d="M7 7H17"/> <path d="M6.5 10H17.5"/> </svg>
